; generated by PrusaSlicer 2.9.0 on 2025-06-06 at 05:17:50 UTC

; 

; external perimeters extrusion width = 0.45mm
; perimeters extrusion width = 0.45mm
; infill extrusion width = 0.45mm
; solid infill extrusion width = 0.45mm
; top infill extrusion width = 0.40mm
; support material extrusion width = 0.35mm
; first layer extrusion width = 0.42mm

; external perimeters extrusion width = 0.45mm
; perimeters extrusion width = 0.45mm
; infill extrusion width = 0.45mm
; solid infill extrusion width = 0.45mm
; top infill extrusion width = 0.40mm
; support material extrusion width = 0.35mm
; first layer extrusion width = 0.42mm


; printing object End Effector Upper id:0 copy 0
; stop printing object End Effector Upper id:0 copy 0

M190 S60 ; set bed temperature and wait for it to be reached
M104 S195 ; set temperature
;TYPE:Custom
G28 ; home all axes
G1 Z5 F5000 ; lift nozzle
M109 S195 ; set temperature and wait for it to be reached
G21 ; set units to millimeters
G90 ; use absolute coordinates
M82 ; use absolute distances for extrusion
G92 E0
; Filament gcode
M107
;LAYER_CHANGE
;Z:0.35
;HEIGHT:0.35
G1 E-2 F2400
G1 Z.35 F7800
G1 X171.556 Y186.106
G1 E.00001 F2400
;TYPE:Skirt/Brim
;WIDTH:0.42
G1 F1800
G1 X173.51 Y185.068 E.11104
G1 X175.379 Y184.777 E.20597
G1 X227.635 Y184.775 E2.82849
G1 X229.813 Y185.172 E2.9396
G1 X231.71 Y186.312 E3.05067
G1 X233.083 Y188.047 E3.16171
G1 X233.687 Y189.736 E3.25173
G1 X234.27 Y192.649 E3.40082
G1 X234.39 Y193.861 E3.46194
G1 X234.39 Y206.139 E4.07812
G1 X234.27 Y207.35 E4.13919
G1 X233.687 Y210.264 E4.28833
G1 X232.871 Y212.321 E4.39939
G1 X231.381 Y213.958 E4.51048
G1 X229.41 Y214.964 E4.62154
G1 X227.636 Y215.225 E4.71153
G1 X183.928 Y215.226 E6.90506
G1 X173.941 Y215.019 E7.40637
G1 X171.773 Y214.577 E7.51741
G1 X169.9 Y213.398 E7.62848
G1 X168.563 Y211.635 E7.73952
G1 X167.985 Y209.884 E7.83206
G1 X165.899 Y197.631 E8.45584
G1 X165.924 Y195.418 E8.56691
G1 X166.695 Y193.411 E8.67481
G1 X170.093 Y187.767 E9.00543
G1 X171.516 Y186.151 E9.11349
G1 E7.11349 F2400
G92 E0
G1 X171.516 Y186.151 F7800
; printing object End Effector Upper id:0 copy 0
G92 E0
G1 X224.831 Y205.176
G1 E2 F2400
;TYPE:Support material interface
;WIDTH:0.35
G1 F1800
G1 X224.381 Y204.726 E2.02546
G1 X223.977 Y204.726 E2.04162
G1 X224.702 Y205.451 E2.08263
G1 X224.702 Y205.855 E2.09879
G1 X223.574 Y204.726 E2.16263
G1 X223.17 Y204.726 E2.17879
G1 X224.493 Y206.05 E2.25366
G1 X224.089 Y206.05 E2.26982
G1 X222.766 Y204.726 E2.34469
G1 X222.362 Y204.726 E2.36085
G1 X223.685 Y206.05 E2.43572
G1 X223.281 Y206.05 E2.45188
G1 X221.958 Y204.726 E2.52675
G1 X221.554 Y204.726 E2.54291
G1 X222.877 Y206.05 E2.61778
G1 X222.474 Y206.05 E2.6339
G1 X221.15 Y204.726 E2.7088
G1 X220.746 Y204.726 E2.72496
G1 X222.07 Y206.05 E2.79986
G1 X221.666 Y206.05 E2.81602
G1 X220.342 Y204.726 E2.89092
G1 X219.938 Y204.726 E2.90708
G1 X221.262 Y206.05 E2.98198
G1 X220.858 Y206.05 E2.99814
G1 X219.534 Y204.726 E3.07304
G1 X219.13 Y204.726 E3.0892
G1 X220.454 Y206.05 E3.1641
G1 X220.05 Y206.05 E3.18026
G1 X218.726 Y204.726 E3.25516
G1 X218.322 Y204.726 E3.27132
G1 X219.647 Y206.05 E3.34625
G1 X219.243 Y206.05 E3.36241
G1 X217.919 Y204.726 E3.43731
G1 X217.515 Y204.726 E3.45347
G1 X218.839 Y206.051 E3.5284
G1 X218.435 Y206.051 E3.54456
G1 X217.111 Y204.726 E3.61949
G1 X216.707 Y204.726 E3.63565
G1 X218.031 Y206.051 E3.71058
G1 X217.627 Y206.051 E3.72674
G1 X216.303 Y204.726 E3.80167
G1 X215.899 Y204.726 E3.81783
G1 X217.223 Y206.051 E3.89276
G1 X216.82 Y206.051 E3.90888
G1 X215.495 Y204.726 E3.98383
G1 X215.091 Y204.726 E3.99999
G1 X216.416 Y206.051 E4.07494
G1 X216.009 Y206.048 E4.09122
G1 X214.687 Y204.726 E4.166
G1 X214.283 Y204.726 E4.18216
G1 X215.598 Y206.041 E4.25655
G1 X215.187 Y206.034 E4.27299
G1 X213.879 Y204.726 E4.34698
G1 X213.475 Y204.726 E4.36314
G1 X214.776 Y206.027 E4.43674
G1 X214.365 Y206.02 E4.45318
G1 X213.071 Y204.726 E4.52638
G1 X212.667 Y204.726 E4.54254
G1 X213.954 Y206.013 E4.61534
G1 X213.543 Y206.006 E4.63178
G1 X212.263 Y204.726 E4.70419
G1 X211.859 Y204.726 E4.72035
G1 X213.132 Y205.999 E4.79236
G1 X212.721 Y205.991 E4.8088
G1 X211.455 Y204.726 E4.88039
G1 X211.051 Y204.726 E4.89655
G1 X212.31 Y205.984 E4.96774
G1 X211.899 Y205.977 E4.98418
G1 X210.647 Y204.726 E5.05498
G1 X210.243 Y204.726 E5.07114
G1 X211.488 Y205.97 E5.14154
G1 X211.077 Y205.963 E5.15798
G1 X209.839 Y204.726 E5.22798
G1 X209.435 Y204.725 E5.24414
G1 X210.666 Y205.956 E5.31378
G1 X210.255 Y205.949 E5.33022
G1 X209.031 Y204.725 E5.39946
G1 X208.627 Y204.725 E5.41562
G1 X209.844 Y205.942 E5.48446
G1 X209.433 Y205.935 E5.5009
G1 X208.223 Y204.725 E5.56935
G1 X207.819 Y204.725 E5.58551
G1 X209.022 Y205.928 E5.65356
G1 X208.611 Y205.921 E5.67
G1 X207.415 Y204.725 E5.73766
G1 X207.011 Y204.725 E5.75382
G1 X208.2 Y205.914 E5.82108
G1 X207.789 Y205.907 E5.83752
G1 X206.673 Y204.791 E5.90065
G1 X206.57 Y205.092 E5.91338
G1 X207.378 Y205.9 E5.95909
G1 X206.967 Y205.893 E5.97553
G1 X206.19 Y205.115 E6.01951
G1 X205.786 Y205.115 E6.03567
G1 X206.556 Y205.886 E6.07926
G1 X206.145 Y205.879 E6.0957
G1 X205.381 Y205.114 E6.13895
G1 X204.976 Y205.113 E6.15515
G1 X205.734 Y205.871 E6.19803
G1 X205.323 Y205.864 E6.21447
G1 X204.572 Y205.113 E6.25695
G1 X204.168 Y205.113 E6.27311
G1 X204.914 Y205.859 E6.31531
G1 X204.518 Y205.867 E6.33115
G1 X203.764 Y205.113 E6.3738
G1 X203.36 Y205.113 E6.38996
G1 X204.122 Y205.875 E6.43307
G1 X203.725 Y205.882 E6.44895
G1 X202.956 Y205.113 E6.49245
G1 X202.553 Y205.113 E6.50857
G1 X203.329 Y205.89 E6.5525
G1 X202.933 Y205.898 E6.56834
G1 X202.149 Y205.114 E6.61269
G1 X201.745 Y205.114 E6.62885
G1 X202.537 Y205.905 E6.67362
G1 X202.14 Y205.913 E6.6895
G1 X201.341 Y205.114 E6.7347
G1 X200.937 Y205.114 E6.75086
G1 X201.744 Y205.921 E6.79651
G1 X201.348 Y205.928 E6.81235
G1 X200.533 Y205.114 E6.85843
G1 X200.13 Y205.114 E6.87455
G1 X200.952 Y205.936 E6.92105
G1 X200.556 Y205.944 E6.93689
G1 X199.726 Y205.114 E6.98384
G1 X199.322 Y205.114 E7
G1 X200.159 Y205.952 E7.04738
G1 X199.763 Y205.959 E7.06322
G1 X198.918 Y205.114 E7.11102
G1 X198.514 Y205.114 E7.12718
G1 X199.367 Y205.967 E7.17543
G1 X198.971 Y205.975 E7.19127
G1 X198.11 Y205.114 E7.23998
G1 X197.707 Y205.114 E7.2561
G1 X198.574 Y205.982 E7.30517
G1 X198.178 Y205.99 E7.32101
G1 X197.303 Y205.115 E7.37051
G1 X196.899 Y205.115 E7.38667
G1 X197.782 Y205.998 E7.43662
G1 X197.386 Y206.005 E7.45246
G1 X196.495 Y205.115 E7.50283
G1 X196.091 Y205.115 E7.51899
G1 X196.989 Y206.013 E7.56979
G1 X196.593 Y206.021 E7.58563
G1 X195.687 Y205.115 E7.63688
G1 X195.283 Y205.115 E7.65304
G1 X196.197 Y206.029 E7.70474
G1 X195.801 Y206.036 E7.72058
G1 X194.879 Y205.115 E7.77271
G1 X194.475 Y205.115 E7.78887
G1 X195.405 Y206.044 E7.84145
G1 X195.05 Y206.051 E7.85565
G1 X194.071 Y205.115 E7.90983
G1 X193.667 Y205.115 E7.92599
G1 X194.604 Y206.051 E7.97897
G1 X194.2 Y206.051 E7.99513
G1 X193.263 Y205.115 E8.04811
G1 X192.859 Y205.114 E8.06427
G1 X193.796 Y206.051 E8.11727
G1 X193.392 Y206.051 E8.13343
G1 X192.455 Y205.114 E8.18643
G1 X192.051 Y205.114 E8.20259
G1 X192.988 Y206.051 E8.25559
G1 X192.584 Y206.051 E8.27175
G1 X191.647 Y205.114 E8.32475
G1 X191.243 Y205.114 E8.34091
G1 X192.18 Y206.05 E8.39389
G1 X191.776 Y206.05 E8.41005
G1 X190.839 Y205.114 E8.46303
G1 X190.435 Y205.114 E8.47919
G1 X191.372 Y206.05 E8.53217
G1 X190.968 Y206.05 E8.54833
G1 X190.031 Y205.114 E8.60131
G1 X189.627 Y205.114 E8.61747
G1 X190.564 Y206.05 E8.67045
G1 X190.16 Y206.05 E8.68661
G1 X189.223 Y205.114 E8.73959
G1 X188.819 Y205.114 E8.75575
G1 X189.756 Y206.05 E8.80873
G1 X189.352 Y206.05 E8.82489
G1 X188.415 Y205.114 E8.87787
G1 X188.011 Y205.114 E8.89403
G1 X188.948 Y206.05 E8.94701
G1 X188.544 Y206.05 E8.96317
G1 X187.607 Y205.113 E9.01617
G1 X187.203 Y205.114 E9.03233
G1 X188.14 Y206.05 E9.08531
G1 X187.736 Y206.05 E9.10147
G1 X186.8 Y205.114 E9.15442
G1 X186.396 Y205.114 E9.17058
G1 X187.332 Y206.05 E9.22353
G1 X186.928 Y206.05 E9.23969
G1 X185.992 Y205.114 E9.29264
G1 X185.588 Y205.114 E9.3088
G1 X186.524 Y206.05 E9.36175
G1 X186.121 Y206.05 E9.37787
G1 X185.184 Y205.114 E9.43085
G1 X184.781 Y205.114 E9.44697
G1 X185.717 Y206.051 E9.49995
G1 X185.313 Y206.051 E9.51611
G1 X184.377 Y205.114 E9.56909
G1 X183.973 Y205.114 E9.58525
G1 X184.909 Y206.051 E9.63823
G1 X184.506 Y206.051 E9.65435
G1 X183.569 Y205.114 E9.70735
G1 X183.165 Y205.115 E9.72351
G1 X184.102 Y206.051 E9.77649
G1 X183.698 Y206.051 E9.79265
G1 X182.761 Y205.115 E9.84563
G1 X182.358 Y205.115 E9.86175
G1 X183.295 Y206.052 E9.91475
G1 X182.891 Y206.052 E9.93091
G1 X181.954 Y205.115 E9.98391
G1 X181.55 Y205.115 E10.00007
G1 X182.487 Y206.052 E10.05307
G1 X182.083 Y206.052 E10.06923
G1 X181.146 Y205.115 E10.12223
G1 X180.742 Y205.115 E10.13839
G1 X181.68 Y206.052 E10.19142
G1 X181.276 Y206.053 E10.20758
G1 X180.338 Y205.115 E10.26064
G1 X179.935 Y205.115 E10.27676
G1 X180.872 Y206.052 E10.32976
G1 X180.464 Y206.048 E10.34608
G1 X179.531 Y205.115 E10.39886
G1 X179.127 Y205.116 E10.41502
G1 X180.051 Y206.04 E10.46729
G1 X179.638 Y206.031 E10.48381
G1 X178.723 Y205.116 E10.53557
G1 X178.319 Y205.116 E10.55173
G1 X179.226 Y206.022 E10.60301
G1 X178.813 Y206.014 E10.61953
G1 X177.916 Y205.116 E10.6703
G1 X177.512 Y205.116 E10.68646
G1 X178.401 Y206.005 E10.73675
G1 X177.988 Y205.996 E10.75327
G1 X177.108 Y205.116 E10.80305
G1 X176.704 Y205.116 E10.81921
G1 X177.576 Y205.988 E10.86854
G1 X177.163 Y205.979 E10.88506
G1 X176.491 Y205.307 E10.92307
G1 E8.92307 F2400
G92 E0
G1 X176.491 Y205.307 F7800
G1 X180.692 Y203.405
G1 E2 F2400
;TYPE:Support material
;WIDTH:0.42
G1 F1800
G1 X197.815 Y203.404 E2.85933
G1 X197.828 Y204.762 E2.92749
G1 X176.02 Y204.763 E4.02194
G1 X176.192 Y205.227 E4.04677
G1 X176.798 Y206.325 E4.10971
G1 X180.66 Y206.405 E4.30357
G1 X197.843 Y206.35 E5.16592
G1 X197.868 Y208.929 E5.29536
G1 X191.482 Y209.054 E5.61591
G1 X183.93 Y209.054 E5.99491
G1 X174.07 Y208.848 E6.48985
G1 X174.187 Y203.269 E6.7699
G1 X180.64 Y203.404 E7.09382
G1 E5.09382 F2400
G92 E0
G1 X180.64 Y203.404 F7800
G1 X197.382 Y208.784
G1 E2 F2400
G1 F1800
G1 X197.382 Y206.669 E2.10614
G1 X196.999 Y206.676 E2.12536
G1 X196.999 Y208.636 E2.22372
G1 X196.616 Y208.643 E2.24294
G1 X196.616 Y206.684 E2.34125
G1 X196.233 Y206.691 E2.36047
G1 X196.233 Y208.651 E2.45883
G1 X195.849 Y208.658 E2.4781
G1 X195.849 Y206.699 E2.57641
G1 X195.466 Y206.706 E2.59563
G1 X195.466 Y208.666 E2.69399
G1 X195.083 Y208.673 E2.71321
G1 X195.083 Y206.714 E2.81152
G1 X194.7 Y206.714 E2.83074
G1 X194.7 Y208.68 E2.92941
G1 X194.317 Y208.688 E2.94864
G1 X194.317 Y206.714 E3.04771
G1 X193.933 Y206.714 E3.06698
G1 X193.933 Y208.695 E3.1664
G1 X193.55 Y208.703 E3.18563
G1 X193.55 Y206.714 E3.28545
G1 X193.167 Y206.714 E3.30467
G1 X193.167 Y208.71 E3.40484
G1 X192.784 Y208.718 E3.42407
G1 X192.784 Y206.714 E3.52464
G1 X192.401 Y206.714 E3.54386
G1 X192.401 Y208.725 E3.64478
G1 X192.017 Y208.733 E3.66406
G1 X192.017 Y206.714 E3.76539
G1 X191.634 Y206.714 E3.78461
G1 X191.634 Y208.74 E3.88629
G1 X191.251 Y208.743 E3.90551
G1 X191.251 Y206.714 E4.00734
G1 X190.868 Y206.714 E4.02656
G1 X190.868 Y208.743 E4.12839
G1 X190.484 Y208.743 E4.14766
G1 X190.484 Y206.713 E4.24954
G1 X190.101 Y206.713 E4.26876
G1 X190.101 Y208.743 E4.37064
G1 X189.718 Y208.743 E4.38986
G1 X189.718 Y206.713 E4.49174
G1 X189.335 Y206.713 E4.51096
G1 X189.335 Y208.743 E4.61284
G1 X188.952 Y208.743 E4.63206
G1 X188.952 Y206.713 E4.73394
G1 X188.568 Y206.713 E4.75321
G1 X188.568 Y208.743 E4.85509
G1 X188.185 Y208.743 E4.87431
G1 X188.185 Y206.713 E4.97619
G1 X187.802 Y206.713 E4.99541
G1 X187.802 Y208.742 E5.09724
G1 X187.419 Y208.742 E5.11646
G1 X187.419 Y206.713 E5.21829
G1 X187.036 Y206.713 E5.23751
G1 X187.036 Y208.743 E5.33939
G1 X186.652 Y208.743 E5.35866
G1 X186.652 Y206.713 E5.46054
G1 X186.269 Y206.714 E5.47976
G1 X186.269 Y208.743 E5.58159
G1 X185.886 Y208.743 E5.60081
G1 X185.886 Y206.714 E5.70264
G1 X185.503 Y206.714 E5.72186
G1 X185.503 Y208.743 E5.82369
G1 X185.12 Y208.743 E5.84291
G1 X185.12 Y206.714 E5.94474
G1 X184.736 Y206.714 E5.96401
G1 X184.736 Y208.744 E6.06589
G1 X184.353 Y208.744 E6.08511
G1 X184.353 Y206.714 E6.18699
G1 X183.97 Y206.715 E6.20621
G1 X183.97 Y208.743 E6.30799
G1 X183.587 Y208.736 E6.32721
G1 X183.587 Y206.715 E6.42864
G1 X183.203 Y206.715 E6.44791
G1 X183.203 Y208.728 E6.54893
G1 X182.82 Y208.72 E6.56816
G1 X182.82 Y206.715 E6.66878
G1 X182.437 Y206.715 E6.688
G1 X182.437 Y208.712 E6.78822
G1 X182.054 Y208.704 E6.80745
G1 X182.054 Y206.716 E6.90722
G1 X181.671 Y206.716 E6.92644
G1 X181.671 Y208.696 E7.02581
G1 X181.287 Y208.688 E7.04509
G1 X181.287 Y206.716 E7.14406
G1 X180.904 Y206.716 E7.16328
G1 X180.904 Y208.68 E7.26185
G1 X180.521 Y208.672 E7.28108
G1 X180.521 Y206.713 E7.37939
G1 X180.138 Y206.705 E7.39862
G1 X180.138 Y208.664 E7.49693
G1 X179.755 Y208.656 E7.51616
G1 X179.755 Y206.697 E7.61447
G1 X179.371 Y206.689 E7.63375
G1 X179.371 Y208.648 E7.73206
G1 X178.988 Y208.64 E7.75129
G1 X178.988 Y206.681 E7.8496
G1 X178.605 Y206.673 E7.86883
G1 X178.605 Y208.632 E7.96714
G1 X178.222 Y208.624 E7.98637
G1 X178.222 Y206.665 E8.08468
G1 X177.839 Y206.657 E8.10391
G1 X177.839 Y208.616 E8.20222
G1 X177.455 Y208.608 E8.2215
G1 X177.455 Y206.649 E8.31981
G1 X177.072 Y206.641 E8.33904
G1 X177.072 Y208.6 E8.43735
G1 X176.689 Y208.592 E8.45658
G1 X176.689 Y206.633 E8.55489
G1 X176.622 Y206.631 E8.55825
G1 X176.306 Y206.087 E8.58982
G1 X176.306 Y208.584 E8.71513
G1 X175.923 Y208.576 E8.73436
G1 X175.923 Y205.381 E8.8947
G1 X175.556 Y204.453 E8.94478
G1 X175.923 Y204.453 E8.9632
G1 X175.923 Y203.616 E9.00521
G1 X176.306 Y203.624 E9.02444
G1 X176.306 Y204.453 E9.06604
G1 X176.689 Y204.453 E9.08526
G1 X176.689 Y203.632 E9.12646
G1 X177.072 Y203.64 E9.14569
G1 X177.072 Y204.453 E9.18649
G1 X177.455 Y204.453 E9.20571
G1 X177.455 Y203.648 E9.24611
G1 X177.839 Y203.656 E9.26539
G1 X177.839 Y204.453 E9.30539
G1 X178.222 Y204.453 E9.32461
G1 X178.222 Y203.664 E9.36421
G1 X178.605 Y203.672 E9.38344
G1 X178.605 Y204.452 E9.42259
G1 X178.988 Y204.452 E9.44181
G1 X178.988 Y203.68 E9.48055
G1 X179.371 Y203.688 E9.49978
G1 X179.371 Y204.452 E9.53812
G1 X179.755 Y204.452 E9.55739
G1 X179.755 Y203.696 E9.59533
G1 X180.138 Y203.704 E9.61456
G1 X180.138 Y204.452 E9.6521
G1 X180.521 Y204.452 E9.67132
G1 X180.521 Y203.712 E9.70846
G1 X180.904 Y203.716 E9.72768
G1 X180.904 Y204.452 E9.76462
G1 X181.287 Y204.452 E9.78384
G1 X181.287 Y203.716 E9.82078
G1 X181.671 Y203.716 E9.84005
G1 X181.671 Y204.452 E9.87699
G1 X182.054 Y204.452 E9.89621
G1 X182.054 Y203.716 E9.93315
G1 X182.437 Y203.715 E9.95237
G1 X182.437 Y204.451 E9.98931
G1 X182.82 Y204.451 E10.00853
G1 X182.82 Y203.715 E10.04547
G1 X183.203 Y203.715 E10.06469
G1 X183.203 Y204.451 E10.10163
G1 X183.587 Y204.451 E10.1209
G1 X183.587 Y203.715 E10.15784
G1 X183.97 Y203.715 E10.17706
G1 X183.97 Y204.451 E10.214
G1 X184.353 Y204.451 E10.23322
G1 X184.353 Y203.714 E10.27021
G1 X184.736 Y203.714 E10.28943
G1 X184.736 Y204.451 E10.32642
G1 X185.12 Y204.451 E10.34569
G1 X185.12 Y203.714 E10.38268
G1 X185.503 Y203.714 E10.4019
G1 X185.503 Y204.451 E10.43889
G1 X185.886 Y204.451 E10.45811
G1 X185.886 Y203.714 E10.4951
G1 X186.269 Y203.714 E10.51432
G1 X186.269 Y204.45 E10.55126
G1 X186.652 Y204.45 E10.57048
G1 X186.652 Y203.713 E10.60747
G1 X187.036 Y203.713 E10.62674
G1 X187.036 Y204.45 E10.66373
G1 X187.419 Y204.45 E10.68295
G1 X187.419 Y203.713 E10.71994
G1 X187.565 Y203.713 E10.72727
G1 X187.802 Y203.713 E10.73916
G1 X187.802 Y204.45 E10.77615
G1 X188.185 Y204.45 E10.79537
G1 X188.185 Y203.713 E10.83236
G1 X188.568 Y203.713 E10.85158
G1 X188.568 Y204.45 E10.88857
G1 X188.952 Y204.45 E10.90784
G1 X188.952 Y203.713 E10.94483
G1 X189.335 Y203.713 E10.96405
G1 X189.335 Y204.45 E11.00104
G1 X189.718 Y204.451 E11.02026
G1 X189.718 Y203.713 E11.0573
G1 X190.101 Y203.713 E11.07652
G1 X190.101 Y204.451 E11.11356
G1 X190.484 Y204.451 E11.13278
G1 X190.484 Y203.713 E11.16982
G1 X190.868 Y203.714 E11.18909
G1 X190.868 Y204.451 E11.22608
G1 X191.251 Y204.451 E11.2453
G1 X191.251 Y203.714 E11.28229
G1 X191.634 Y203.714 E11.30151
G1 X191.634 Y204.451 E11.3385
